X:1
T:Title
%%score { 1 | 2 } { 3 | 4 }
L:1/8
Q:1/4=100
M:4/4
K:Eb
V:1 treble nm="Grand Piano, Soprano"
V:2 treble 
V:3 bass nm="Choir Pad, Come Over into Canaan"
V:4 bass 
V:1
 E2 GG GGGF | EG B2 B2 B2 | B2 e>d ec B2 | G2 F6 | E2 GG GGGF | EG B2 B2 B2 | c2 d>_d =de d2 | %7
w: By~Haldor~Lillenas * * * * * *|||||||
 c2 B6 | B2 GG- G2 G_G | GB A6 | B2 AA- A2 dc | BA G6 | BBee ee d2 | ddce dc B2 | G2 B>=A Bc g2 | %15
w: ||||||||
 f2 e6- | e2 z2 z4 |] %17
w: ||
V:2
 z2 EE EEEE | z E E2 D2 E2 | G2 G>G GA G2 | E2 D6 | z2 EE EEEE | z E E2 D2 E2 | E2 F>=E FG F2 | %7
 E2 D2 E2 F2 | E2 EE- E2 EE | EE D6 | D2 DD- D2 AA | GF E6 | GGGG GG G2 | GFEA AA G2 | %14
 z4 z2 [EG]2 | [DF]2 E6- | E2 z2 z4 |] %17
V:3
 G,2 B,B, B,B,B,A, | G,B, G,2 A,2 G,2 | B,2 B,>B, EB, E2 | B,2 B,6 | G,2 B,B, B,B,B,A, | %5
 G,B, G,2 A,2 B,2 | B,2 B,>=A, B,A, B,2 | =A,2 B,2 _G,2 _A,2 | G,2 B,B,- B,2 B,=A, | B,G, B,6 | %10
 F,2 F,F,- F,2 B,B, | B,B, B,6 | B,B,B,B, B,B, =B,2 | =B,B,[K:treble]CC EE E2 | %14
 G,2 B,>=A, B,C B,2 | A,2 G,6- | G,2 z2 z4 |] %17
V:4
 E,2 E,E, E,E,E,E, | E,E, E,2 B,,2 E,2 | E,2 E,>E, [E,B,]E, E,2 | E,2 B,,6 | E,2 E,E, E,E,E,E, | %5
 E,E, z2 F,2 G,2 | _G,2 F,>F, F,F, F,2 | F,,2 B,,6 | E,2 E,E,- E,2 E,E, | E,E,E,=E, F,D, B,,2 | %10
 B,,2 B,,B,,- B,,2 B,,B,, | B,,B,,E,B,, C,D, E,2 | E,E,E,E, E,E, G,2 | G,G,A,A, A,A, E,2 | z8 | %15
 B,,2 E,6- | E,2 z2 z4 |] %17

